X: 23771
T: Little Diamond, The
R: polka
M: 2/4
K: Dmajor
|:A>B AF|DF Ad|A>B AF|GF EF/E/|
DE FG|AB cd|ed c/d/e|1 dA BF:|2 d2 d>e||
|:fd ge|fd cB|Ad cd|fe ed/e/|
fd ge|fd cB|Ag ec|1 d2 d>e:|2 dA BF||

